X: 6
M:6/8
L:1/8
K:G
uD|v(G>.B)ud (g>.d)B|"SEGUE"d>"_4"ed d2B|G>Bd g>dB|\
{def}vg2d (e>.d)B|vd>ued d3 |{def}vg2d (e.d)B|vA>uBA A3 |\
{def}vg2d (e>.d)B|"SEGUE"d>ef g>fe|\
d>cB c>BA|1 "4"(AG)G G2 z:|2 "4"(AG)G G2|]


